!!!OTL: 761. Seht die Lilien auf dem Felde.
!!!ARE: Europa, Mitteleuropa, Deutschland
!!!SCT: B0761
!!!TXL: @@DE
!!!YEM: Copyright 1995, estate of Helmut Schaffrath.
**kern	**text
*ICvox	*
*Ivox	*
*clefG2	*
*M4/4	*
*met(c)	*
*k[f#]	*
*G:	*
!LO:TX:a:t=Mäßig langſam.	!
{4d	Du
=1	=1
4b	ſchö-
4b	-ne
4a	Li-
4a	-lie
=2	=2
4g	auf
8bL	dem
8gJ	.
4.d}	Feld,
{8d	wer
=3	=3
4cc	hat
4cc	in
4b	ſol-
8ddL	-cher
8bJ	.
=4	=4
2a	Pracht
4r}	.
{8gL	dich
8bJ	.
=5	=5
4dd	vor
4dd	die
4ee	Au-
4ee	-gen
=6	=6
8ddL	hin-
8ccJ	.
8bL	-ge-
8ccJ	.
4.a}	-ſtellt,
{8dd	wer
=7	=7
4b	bat
4g	dich
8bL	ſchön
8aJ	.
8gL	ge-
8f#J	.
=8	=8
2g	-macht?
4r}	.
==	==
!!!AGN: Natur - Lied, religioes
!!!GTL: Religioese Lieder
!!!ONB: ESAC (Essen Associative Code) Database: BOEHME
!!!AMT: simple quadruple
!!!AIN: vox
!!!EED: Helmut Schaffrath
!!!EEV: 1.0
!!Nach einer Volksweise.
!!@@COMMENT:"Philipp Spitta. 1853. Auch nach der Weiſe: "An einem Fluß, der rauſchend ſchoß"."
!!@@END:
!!!Text: Ph. Spitta
!!!URL-scan: https://archive.org/details/BoehmeVtLieder1895/page/n609/mode/2up
!!!ENC: Anna Maria Matuszewska
!!!EEV: 2024/19/07
*-	*-
